X: 1
T:Earl of Dalhousie's Happy Return to Scotland, The
R:Reel
C:Niel Gow
D:Abby Newton: Crossing to Scotland
M:4/4
L:1/8
Z: posted by Ted Hastings 4/99
K:D
D3 E G>F E<D|C2 E2 A,2 C2|D3 E G>F E<D|d4 A2 d2|B2 g>B A2 f>A|!
G>F E>D C>D E>F|[1G>F E>D E>F G<A|B4 c2 d2:|[2G>F E>D A>D C<E|D6 (3ABc||
